icons/underpants-button.svg

<svg xmlns="http://www.w3.org/2000/svg" viewBox="0 0 24 24" fill="currentColor">
  <path d="M3.75 7c0-1.78579 1.46421-3.25 3.25-3.25h10c1.7858 0 3.25 1.46421 3.25 3.25v6c0 .1022-.0021.2039-.0064.3051-.2371-.0333-.4883-.0551-.7436-.0551-2.9142 0-5.25 2.3358-5.25 5.25 0 .5765.0898 1.1087.2404 1.5947-.4814.1018-.98.1553-1.4904.1553h-2.1c-.5116 0-1.00997-.0539-1.49006-.1564.15048-.4857.2401-1.0175.2401-1.5936 0-2.9142-2.33579-5.25-5.25-5.25-.21994 0-.4369.0162-.64437.042C3.7519 13.1951 3.75 13.0978 3.75 13V7Zm15.75 7.75c.173 0 .3498.0148.5249.0391-.5556 2.1664-2.0946 3.9509-4.1072 4.8437-.1058-.3473-.1677-.7243-.1677-1.1328 0-2.0858 1.6642-3.75 3.75-3.75Zm-15.53453.0275c.5369 2.1696 2.03514 3.9526 4.01902 4.8482.10451-.3453.16555-.72.16555-1.1257 0-2.0858-1.66421-3.75-3.75-3.75-.14327 0-.28918.0102-.43457.0275ZM7 2.25C4.38579 2.25 2.25 4.38579 2.25 7v6c0 4.8019 3.82357 8.75 8.65 8.75H13c4.8142 0 8.75-3.9358 8.75-8.75V7c0-2.61421-2.1358-4.75-4.75-4.75H7ZM10.75 10c0-.69036.5596-1.25 1.25-1.25s1.25.55964 1.25 1.25c0 .6904-.5596 1.25-1.25 1.25s-1.25-.5596-1.25-1.25ZM12 7.25c-1.5188 0-2.75 1.23122-2.75 2.75 0 1.5188 1.2312 2.75 2.75 2.75s2.75-1.2312 2.75-2.75c0-1.51878-1.2312-2.75-2.75-2.75Z"/>
</svg>

<svg width="24" height="24" viewBox="0 0 24 24" fill="none" xmlns="http://www.w3.org/2000/svg">
<path fill-rule="evenodd" clip-rule="evenodd" d="M3.75 7C3.75 5.21421 5.21421 3.75 7 3.75H17C18.7858 3.75 20.25 5.21421 20.25 7V13C20.25 13.1022 20.2479 13.2039 20.2436 13.3051C20.0065 13.2718 19.7553 13.25 19.5 13.25C16.5858 13.25 14.25 15.5858 14.25 18.5C14.25 19.0765 14.3398 19.6087 14.4904 20.0947C14.009 20.1965 13.5104 20.25 13 20.25H10.9C10.3884 20.25 9.89003 20.1961 9.40994 20.0936C9.56042 19.6079 9.65004 19.0761 9.65004 18.5C9.65004 15.5858 7.31425 13.25 4.40004 13.25C4.1801 13.25 3.96314 13.2662 3.75567 13.292C3.7519 13.1951 3.75 13.0978 3.75 13V7ZM19.5 14.75C19.673 14.75 19.8498 14.7648 20.0249 14.7891C19.4693 16.9555 17.9303 18.74 15.9177 19.6328C15.8119 19.2855 15.75 18.9085 15.75 18.5C15.75 16.4142 17.4142 14.75 19.5 14.75ZM3.96547 14.7775C4.50237 16.9471 6.00061 18.7301 7.98449 19.6257C8.089 19.2804 8.15004 18.9057 8.15004 18.5C8.15004 16.4142 6.48583 14.75 4.40004 14.75C4.25677 14.75 4.11086 14.7602 3.96547 14.7775ZM7 2.25C4.38579 2.25 2.25 4.38579 2.25 7V13C2.25 17.8019 6.07357 21.75 10.9 21.75H13C17.8142 21.75 21.75 17.8142 21.75 13V7C21.75 4.38579 19.6142 2.25 17 2.25H7ZM10.75 10C10.75 9.30964 11.3096 8.75 12 8.75C12.6904 8.75 13.25 9.30964 13.25 10C13.25 10.6904 12.6904 11.25 12 11.25C11.3096 11.25 10.75 10.6904 10.75 10ZM12 7.25C10.4812 7.25 9.25 8.48122 9.25 10C9.25 11.5188 10.4812 12.75 12 12.75C13.5188 12.75 14.75 11.5188 14.75 10C14.75 8.48122 13.5188 7.25 12 7.25Z" fill="black"/>
</svg>
